assets/icons/actions/outgoing_mail.svg

<svg viewBox="0 0 24 24" xmlns="http://www.w3.org/2000/svg">
<path d="M3.8502 20.75C3.11686 20.75 2.49186 20.4917 1.9752 19.975C1.45853 19.4583 1.2002 18.8333 1.2002 18.1V5.9C1.2002 5.16667 1.45853 4.54167 1.9752 4.025C2.49186 3.50833 3.11686 3.25 3.8502 3.25H20.1502C20.8835 3.25 21.5085 3.50833 22.0252 4.025C22.5419 4.54167 22.8002 5.16667 22.8002 5.9V14.475C22.3169 14.175 21.7962 13.95 21.2382 13.8C20.6795 13.65 20.1085 13.575 19.5252 13.575C17.7585 13.575 16.2585 14.1917 15.0252 15.425C13.7919 16.6583 13.1752 18.1583 13.1752 19.925V20.75H3.8502ZM12.0002 11L5.5252 6.95C5.19186 6.73333 4.82953 6.72067 4.4382 6.912C4.0462 7.104 3.8502 7.425 3.8502 7.875C3.8502 8.075 3.9002 8.25833 4.0002 8.425C4.1002 8.59167 4.21686 8.71667 4.3502 8.8L11.3002 13.15C11.5169 13.2833 11.7502 13.35 12.0002 13.35C12.2502 13.35 12.4835 13.2833 12.7002 13.15L19.6502 8.8C19.7835 8.71667 19.9002 8.59167 20.0002 8.425C20.1002 8.25833 20.1502 8.075 20.1502 7.875C20.1502 7.45833 19.9669 7.14167 19.6002 6.925C19.2335 6.70833 18.8585 6.71667 18.4752 6.95L12.0002 11ZM18.9002 20.75H16.5002C16.1335 20.75 15.8209 20.621 15.5622 20.363C15.3042 20.1043 15.1752 19.7917 15.1752 19.425C15.1752 19.0583 15.3042 18.746 15.5622 18.488C15.8209 18.2293 16.1335 18.1 16.5002 18.1H18.9002L18.5502 17.775C18.2835 17.5083 18.1545 17.1917 18.1632 16.825C18.1712 16.4583 18.3085 16.1417 18.5752 15.875C18.8419 15.625 19.1502 15.5 19.5002 15.5C19.8502 15.5 20.1585 15.6333 20.4252 15.9L23.0502 18.5C23.3002 18.75 23.4252 19.0583 23.4252 19.425C23.4252 19.7917 23.3002 20.1 23.0502 20.35L20.4252 22.95C20.1752 23.2 19.8712 23.329 19.5132 23.337C19.1545 23.3457 18.8419 23.2167 18.5752 22.95C18.3252 22.7 18.1962 22.396 18.1882 22.038C18.1795 21.6793 18.3002 21.3667 18.5502 21.1L18.9002 20.75Z" fill="inherit"/>
</svg>

<svg viewBox="0 0 24 24" xmlns="http://www.w3.org/2000/svg"><path d="M3.9 20.8c-.8 0-1.4-.3-2-.8-.4-.5-.7-1.2-.7-1.9V5.9c0-.7.3-1.4.8-1.9s1.1-.8 1.9-.8h16.3c.7 0 1.3.3 1.8.8s.8 1.2.8 1.9v8.6c-.5-.3-1-.6-1.6-.7-.5-.2-1-.2-1.7-.2-1.7 0-3.2.6-4.5 1.8a6.1 6.1 0 0 0-1.8 4.5v.9H3.9ZM12 11 5.5 7c-.3-.3-.7-.3-1 0a1 1 0 0 0-.6.9l.1.5.4.4 6.9 4.3a1.3 1.3 0 0 0 1.4 0l7-4.3.3-.4.2-.5a1 1 0 0 0-.6-1 1 1 0 0 0-1.1 0L12 11Zm6.9 9.8h-2.4c-.4 0-.7-.2-1-.4-.2-.3-.3-.6-.3-1 0-.3.1-.7.4-1 .2-.2.5-.3.9-.3h2.4l-.3-.3c-.3-.3-.4-.6-.4-1a1.3 1.3 0 0 1 1.3-1.3c.4 0 .7.1 1 .4l2.6 2.6c.2.3.3.6.3 1l-.3.9-2.7 2.6c-.2.2-.5.3-.9.3-.3 0-.7 0-1-.4-.2-.2-.3-.5-.3-.9 0-.3.1-.6.4-.9l.3-.4Z" fill="inherit"/></svg>
